icons/mobile/24/svg/local-host-slash-24.svg

<svg width="24" height="24" viewBox="0 0 24 24" fill="none" xmlns="http://www.w3.org/2000/svg">
<path fill-rule="evenodd" clip-rule="evenodd" d="M2.25579 2.75579C2.5975 2.41408 3.15237 2.41408 3.49407 2.75579L21.7441 21.0058C22.0858 21.3475 22.0858 21.9024 21.7441 22.2441C21.4024 22.5858 20.8475 22.5858 20.5058 22.2441L18.1972 19.9355H2.87591C2.39291 19.9355 2.00091 19.5435 2.00091 19.0605C2.00117 18.5777 2.39307 18.1855 2.87591 18.1855H4.51263C3.60499 17.6295 3.00108 16.6351 3.00091 15.5204V8.59857C3.00104 7.56107 3.51647 6.6229 4.31341 6.05169L2.25579 3.99407C1.91408 3.65237 1.91408 3.0975 2.25579 2.75579ZM5.58978 7.32806C5.09486 7.5347 4.75107 8.03236 4.75091 8.59857V15.5204C4.75115 16.2042 5.26155 16.7917 5.93939 16.8867C9.06792 17.3271 12.2655 17.413 15.4238 17.162L5.58978 7.32806Z" fill="black"/>
<path d="M8.1054 5.24993C11.4981 4.95799 14.9389 5.02992 18.3046 5.50286C19.8405 5.71884 20.9987 7.05168 20.999 8.60247V15.5243C20.9989 16.2502 20.7266 16.9113 20.3007 17.4462L19.0517 16.1972C19.1666 15.9943 19.2498 15.7712 19.2499 15.5243V8.60247C19.2497 7.91868 18.7393 7.33124 18.0615 7.23626C16.0606 6.9553 14.0208 6.81243 11.9999 6.81243C11.25 6.81243 10.498 6.85156 9.747 6.89056L8.1054 5.24993Z" fill="black"/>
</svg>

<!-- This Source Code Form is subject to the terms of the Mozilla Public
   - License, v. 2.0. If a copy of the MPL was not distributed with this
   - file, You can obtain one at http://mozilla.org/MPL/2.0/. -->
<svg xmlns="http://www.w3.org/2000/svg" width="24" height="24" fill="none" viewBox="0 0 24 24">
    <path fill="#000" fill-rule="evenodd" d="M2.256 2.756a.876.876 0 0 1 1.238 0l18.25 18.25a.876.876 0 0 1-1.238 1.238l-2.309-2.308H2.876a.875.875 0 0 1 0-1.75h1.637A3.14 3.14 0 0 1 3 15.52V8.6a3.14 3.14 0 0 1 1.312-2.547L2.256 3.994a.876.876 0 0 1 0-1.238M5.59 7.328a1.38 1.38 0 0 0-.84 1.27v6.922a1.39 1.39 0 0 0 1.19 1.367c3.128.44 6.325.526 9.484.275z" clip-rule="evenodd" />
    <path fill="#000" d="M8.105 5.25a45.5 45.5 0 0 1 10.2.253 3.145 3.145 0 0 1 2.694 3.1v6.921c0 .726-.272 1.387-.698 1.922l-1.25-1.249a1.35 1.35 0 0 0 .199-.673V8.602c0-.683-.51-1.27-1.189-1.366-2-.28-4.04-.424-6.061-.424-.75 0-1.502.04-2.253.079z" />
</svg>
